X: 1713
T: Sen Hangi Telin Nağmesi...
C: Özgen Gürbüz
O: Turkey
F: http://compmusic.upf.edu/node/140
N: evcara--sarki--aksak--sen_hangi--ozgen_gurbuz
N: makam= evcara
N: form= sarki
N: usul= aksak = 9/8
M: 9/8
L: 1/16
K: C _1/4B ^f ^c ^A
Q: 1/4=120
%%MIDI tuningsystem comma53
f4 f2=a2 g2b2 a2g2 f2 | ^e3de2 f2e2 d2c6  | \
w:  ARANAĞME  |   | 
c4 d2^e2 f2g2 =abag gf | 
w:   | 
f6 ^e2d2 e2f6  | f4 f2=a2 g2b2 a2g2 f2 | \
w:   |   | 
^e3dc2 d2c2 B2A6  | c4 d2^e2 c2B2 ABAG GF | 
w:   |   | 
F6 ^E2A2 GFF6  | f4 f2=a2 g2b2 a2g2 f2 | \
w:   |  Sen  han *  gi  te lin   | 
^e3dd2 efed c^Bc6  | 
w:  nağ *  me si  *  san  | 
d3/2c/d2 ^e2f2 g2=ab =c'bag gf | =a6 a^gf^e fga6  | 
w:  dın  *  *  ki  bu  bağ  |  rım   SAZ  | 
f4 f2=a2 g2b2 a2g2 f2 | =a3^ga2 b2a2 =g2f2 ^e2f2  | \
w:  Sen  han *  gi  te lin   |  nağ *  me si  san  | 
g4 f2^e2 d2c2 =a3g gf | 
w:  dın  ki  bu  bağ  | 
f6 ^edcB AGF6  | f4 f2=a2 g2b2 a2g2 f2 | \
w:  rım   SAZ  |  Sen  han *  gi  te lin   | 
^e3dd2 efed c^Bc6  | 
w:  nağ *  me si  *  san  | 
d3/2c/d2 ^e2f2 g2=ab =c'bag gf | =a6 a^gf^e fga6  | 
w:  dın  *  *  ki  bu  bağ  |  rım   SAZ  | 
f4 f2=a2 g2b2 a2g2 f2 | =a3^ga2 b2a2 =g2f2 ^e2f2  | \
w:  Sen  han *  gi  te lin   |  nağ *  me si  san  | 
g4 f2^e2 d2c2 =a3g gf | 
w:  dın  ki  bu  bağ  | 
f6 fgf^e fg=a6  | ^g4 =a4 a2a2 _b6 | \
w:  rım   SAZ  |  Mız râ bı  e lâ   | 
=a4^g2 a2=f8^e2  | e4 g2g2 =f2e2 d2c2 d2 | 
w:  göz le ri nin   |  ver di ği  ağ  | 
e6 e=fed egf6  | e4 =f4 e2d2 c6 | d3cd2 ^e2f4g4(3fef  | 
w:  rım   SAZ  |  Mız râ bı  e lâ   |  göz *  le ri nin   | 
=agf^e dcB2 A2B2 cBAG F^E | F6 fgf^e fg=a6  | 
w:  ver *  *  *  di *  ği  ağ  |  rım   SAZ  | 
^g4 =a4 a2a2 _b6 | =a4^g2 a2=f8^e2  | \
w:  Mız râ bı  e lâ   |  göz le ri nin   | 
e4 g2g2 =f2e2 d2c2 d2 | e6 e=fed egf6  | 
w:  ver di ği  ağ  |  rım   SAZ  | 
e4 =f4 e2d2 c6 | d3cd2 ^e2f4g4(3fef  | \
w:  Mız râ bı  e lâ   |  göz *  le ri nin   | 
=agf^e dcB2 A2B2 cBAG F^E | 
w:  ver *  *  *  di *  ği  ağ  | 
F6 cdcB ABc6  | B3/2A/B2 d3/2c/d2 f2f2 .f4 z2 | \
w:  rım   SAZ  |  İn *  *  let *  *  me  bı rak   | 
g2 f^ed2 c2B2 c2A2 G2F2  | 
w:  bil *  *  me di ğin   | 
G4 A2B2 c4 d4 ^e2 | f6 f^g=ag f^ef6  | \
w:  san ki  ne  kal  |  dı   SAZ  | 
B3/2A/B2 f3/2^e/f2 =e2g2 f2e2 d2 | 
w:  İn *  *  let *  *  me  bı rak   | 
c3BA2 B2A8-A2  | B4 c2d2 ^e2f2 g3g/f/ e2 | \
w:  bil *  me di ğin   |  san ki  ne  kal  | 
f6 cdcB ABc6  | 
w:  dı   SAZ  | 
B3/2A/B2 d3/2c/d2 f2f2 .f4 z2 | g2 f^ed2 c2B2 c2A2 G2F2  | \
w:  İn *  *  let *  *  me  bı rak   |  bil *  *  me di ğin   | 
G4 A2B2 c4 d4 ^e2 | 
w:  san ki  ne  kal  | 
f6 f^g=ag f^ef6  | B3/2A/B2 f3/2^e/f2 =e2g2 f2e2 d2 | \
w:  dı   SAZ  |  İn *  *  let *  *  me  bı rak   | 
c3BA2 B2A8-A2  | 
w:  bil *  me di ğin   | 
B4 c2d2 ^e2f2 g3g/f/ e2 | f6 fgf^e fg=a6  | \
w:  san ki  ne  kal  |  dı   SAZ  | 
^g4 =a4 a2a2 _b6 | 
w:  Mız râ bı  e lâ   | 
=a4^g2 a2=f8^e2  | e4 g2g2 =f2e2 d2c2 d2 | \
w:  göz le ri nin   |  ver di ği  ağ  | 
e6 e=fed egf6  | 
w:  rım   SAZ  | 
e4 =f4 e2d2 c6 | d3cd2 ^e2f4g4(3fef  | \
w:  Mız râ bı  e lâ   |  göz *  le ri nin   | 
=agf^e dcB2 A2B2 cBAG F^E | 
w:  ver *  *  *  di *  ği  ağ  | 
F6 |
w:  rım    | 


